src/Assets/icons/nextjs.svg

<svg height="512" width="512" xmlns="http://www.w3.org/2000/svg"><path d="m386.3985596 35.5079727c-169.3385315-99.5687332-384.5140285 22.0419274-386.3862926 218.3738175-1.8282685 191.716507 201.0625916 315.5454712 370.0206604 231.1632233l-184.4725331-271.408722.0000305 167.9969177c0 18.6138916-35.6191101 18.6138916-35.6191101 0v-225.2124176c0-14.7758484 27.4472504-15.9884033 35.2252045-3.1443481l210.2631683 317.2959595c157.9509888-101.737259 155.8170166-338.1359864-9.0311279-435.0644303zm-23.7556153 317.9385605-35.7316284-54.5765381v-149.4116669c0-13.9324646 35.7316284-13.9324646 35.7316284 0z"/></svg>

<svg width="512" height="512" viewBox="0 0 512 512" fill="none" xmlns="http://www.w3.org/2000/svg">
<g clip-path="url(#clip0_1203_8)">
<path d="M386.399 35.508C217.06 -64.0608 1.88453 57.5499 0.012267 253.882C-1.816 445.598 201.075 569.427 370.033 485.045L185.56 213.636L185.56 381.633C185.56 400.247 149.941 400.247 149.941 381.633V156.421C149.941 141.645 177.389 140.432 185.167 153.276L395.43 470.572C553.381 368.835 551.247 132.436 386.399 35.508ZM362.643 353.447L326.911 298.87V149.458C326.911 135.526 362.643 135.526 362.643 149.458V353.447Z" fill="black"/>
</g>
<defs>
<clipPath id="clip0_1203_8">
<rect width="512" height="512" fill="white"/>
</clipPath>
</defs>
</svg>
